X:271
T:Old Torn Petticoat
Z: id:dc-reel-252
M:C
L:1/8
K:A Dorian
AB|c2Bc AGEF|G2BG dGBG|c2Bc AGEF|GABG A2:|!
AB|cdef g2ed|aged cAA2|cdef g2ed|eaag a2ga|!
bagb agef|gedc BGGB|c2Bc AGEF|GABG A2:|!

